build/svg/cmd/nl/lc_underlinedouble.svg

<?xml version="1.0" encoding="UTF-8" standalone="no"?>
<svg
   xmlns:dc="http://purl.org/dc/elements/1.1/"
   xmlns:cc="http://creativecommons.org/ns#"
   xmlns:rdf="http://www.w3.org/1999/02/22-rdf-syntax-ns#"
   xmlns:svg="http://www.w3.org/2000/svg"
   xmlns="http://www.w3.org/2000/svg"
   xmlns:sodipodi="http://sodipodi.sourceforge.net/DTD/sodipodi-0.dtd"
   xmlns:inkscape="http://www.inkscape.org/namespaces/inkscape"
   viewBox="0 0 24 24"
   version="1.1"
   id="svg4"
   sodipodi:docname="lc_underlinedouble.svg"
   inkscape:version="0.92.5 (2060ec1f9f, 2020-04-08)"
   inkscape:export-filename="/home/jupiter007/Libreoffice yaru theme fullcolor/build/cmd/nl/lc_underlinedouble.png"
   inkscape:export-xdpi="96"
   inkscape:export-ydpi="96">
  <metadata
     id="metadata10">
    <rdf:RDF>
      <cc:Work
         rdf:about="">
        <dc:format>image/svg+xml</dc:format>
        <dc:type
           rdf:resource="http://purl.org/dc/dcmitype/StillImage" />
      </cc:Work>
    </rdf:RDF>
  </metadata>
  <defs
     id="defs8" />
  <sodipodi:namedview
     pagecolor="#ffffff"
     bordercolor="#666666"
     borderopacity="1"
     objecttolerance="10"
     gridtolerance="10"
     guidetolerance="10"
     inkscape:pageopacity="0"
     inkscape:pageshadow="2"
     inkscape:window-width="1920"
     inkscape:window-height="1011"
     id="namedview6"
     showgrid="true"
     inkscape:zoom="19.666667"
     inkscape:cx="8.3550187"
     inkscape:cy="8.2325409"
     inkscape:window-x="0"
     inkscape:window-y="32"
     inkscape:window-maximized="1"
     inkscape:current-layer="svg4">
    <inkscape:grid
       type="xygrid"
       id="grid829" />
  </sodipodi:namedview>
  <path
     id="path846"
     d="M 12,1 C 8.6759999,1 6.0000001,4.122 6.0000001,8 v 2.999804 c 0,3.878 2.6759998,7 5.9999999,7 3.324,0 6,-3.122 6,-7 V 8 C 18,4.122 15.324,1 12,1 Z m 0.5,2 h 1 C 14.885,3 16,5.23 16,8 v 2.999804 c 0,2.77 -1.115,5 -2.5,5 h -1 c -1.385,0 -2.5000001,-2.23 -2.5000001,-5 V 8 C 9.9999999,5.23 11.115,3 12.5,3 Z"
     style="opacity:0.6;fill:#000000;fill-opacity:1;stroke:#000000;stroke-width:2;stroke-linejoin:round;stroke-miterlimit:4;stroke-dasharray:none;stroke-opacity:1"
     inkscape:connector-curvature="0"
     sodipodi:nodetypes="ssssssssssssssss" />
  <path
     style="opacity:0.6;fill:#000000;fill-opacity:1;stroke:#000000;stroke-width:2;stroke-linejoin:round;stroke-miterlimit:4;stroke-dasharray:none;stroke-opacity:1"
     d="M 4 20 L 4 21 L 20 21 L 20 20 L 4 20 z M 4 22 L 4 23 L 20 23 L 20 22 L 4 22 z "
     id="path825" />
  <path
     style="opacity:1;fill:#ffffff;fill-opacity:1;stroke:none;stroke-width:2;stroke-linecap:round;stroke-linejoin:round;stroke-miterlimit:4;stroke-dasharray:none;stroke-opacity:1"
     d="M 4.0000001,19.999804 H 20 v 1 H 4.0000001 Z"
     id="rect828"
     inkscape:connector-curvature="0"
     sodipodi:nodetypes="ccccc" />
  <path
     style="opacity:1;fill:#ffffff;fill-opacity:1;stroke:none;stroke-width:4.38178015;stroke-linejoin:round;stroke-miterlimit:4;stroke-dasharray:none;stroke-opacity:1"
     d="M 12,1 C 8.6759999,1 6.0000001,4.122 6.0000001,8 v 2.999804 c 0,3.878 2.6759998,7 5.9999999,7 3.324,0 6,-3.122 6,-7 V 8 C 18,4.122 15.324,1 12,1 Z m 0.5,2 h 1 C 14.885,3 16,5.23 16,8 v 2.999804 c 0,2.77 -1.115,5 -2.5,5 h -1 c -1.385,0 -2.5000001,-2.23 -2.5000001,-5 V 8 C 9.9999999,5.23 11.115,3 12.5,3 Z"
     id="rect835"
     inkscape:connector-curvature="0"
     sodipodi:nodetypes="ssssssssssssssss" />
  <path
     sodipodi:nodetypes="ccccc"
     inkscape:connector-curvature="0"
     id="path833"
     d="M 4.0000001,22 H 20 v 1 H 4.0000001 Z"
     style="opacity:1;fill:#ffffff;fill-opacity:1;stroke:none;stroke-width:2;stroke-linecap:round;stroke-linejoin:round;stroke-miterlimit:4;stroke-dasharray:none;stroke-opacity:1" />
</svg>

<svg xmlns="http://www.w3.org/2000/svg" viewBox="0 0 24 24"><path d="M12 1C8.676 1 6 4.122 6 8v3c0 3.878 2.676 7 6 7s6-3.122 6-7V8c0-3.878-2.676-7-6-7zm.5 2h1C14.885 3 16 5.23 16 8v3c0 2.77-1.115 5-2.5 5h-1c-1.385 0-2.5-2.23-2.5-5V8c0-2.77 1.115-5 2.5-5zM4 20v1h16v-1H4zm0 2v1h16v-1H4z" opacity=".6" stroke="#000" stroke-width="2" stroke-linejoin="round"/><path d="M4 20h16v1H4zM12 1C8.676 1 6 4.122 6 8v3c0 3.878 2.676 7 6 7s6-3.122 6-7V8c0-3.878-2.676-7-6-7zm.5 2h1C14.885 3 16 5.23 16 8v3c0 2.77-1.115 5-2.5 5h-1c-1.385 0-2.5-2.23-2.5-5V8c0-2.77 1.115-5 2.5-5zM4 22h16v1H4z" fill="#fff"/></svg>
